X:1
T:[ID 7-119]
T:[ID 7-119]
T:Bezeichnung standardisiert: Menuett Minuetto [mit Trio]
T:Urheber unbekannt Datum in der hier transkribierten schriftlichen Quelle: 1776 - 1791
C:Urheber unbekannt
C:Datum in der hier transkribierten schriftlichen Quelle: 1776 - 1791
L:1/8
M:3/4
K:F
V:1 treble 
V:1
 F2 f2 f2 | (3fag (3fef c2 | (dB)(cA)(BG) |{B} A4 G2 | (3FAc f2 a2 | (gf)(fe) e2 | df/d/ c2 =B2 | %7
{=B} c6 :: C2 c2 c2 | c2 (3agf (3edc | B2 B2 c2 | B2 (3gfe (3dcB | A2 f2 f2 | (3fag (3fef c2 | %14
 (3dcB AGFE |{E} F6 :|[M:3/4]"^Trio" (!fermata!c2 A2) .B2 | c4 fc | (B2 G2) .A2 | B4 gB | %20
 AF F2 (3FGA | BGGG (3GAB | A>c B2 A2 |{A} G6 :: (c=B)(dc) c2 | (c=B)(dc) c2 | g2 _B2 (BA) | %27
{A} G6 | (fe)(gf) f2 | (fe)(gf) f2 | (3dcB A2 G2 |{G} F6"^DaC Min." :| %32

